assets/img/logo-flex-grid-framework.svg

<?xml version="1.0"?>
<svg version="1.1" xmlns="http://www.w3.org/2000/svg" xmlns:xlink="http://www.w3.org/1999/xlink" width="540" height="150">
    <desc iVinci="yes" version="4.6" gridStep="20" showGrid="no" snapToGrid="no" codePlatform="0"/>
    <g id="Layer1" name="Layer 1" opacity="1">
        <g id="Shape1">
            <desc shapeID="1" type="0" basicInfo-basicType="1" basicInfo-roundedRectRadius="12" basicInfo-polygonSides="6" basicInfo-starPoints="5" bounding="rect(-155.501,-155.5,311.002,311)" text="" font-familyName="Helvetica" font-pixelSize="20" font-bold="0" font-underline="0" font-alignment="1" strokeStyle="0" markerStart="0" markerEnd="0" shadowEnabled="0" shadowOffsetX="0" shadowOffsetY="2" shadowBlur="4" shadowOpacity="160" blurEnabled="0" blurRadius="4" transform="matrix(0.46633,0,0,0.435193,78.8562,75)" pers-center="0,0" pers-size="0,0" pers-start="0,0" pers-end="0,0" locked="0" mesh="" flag=""/>
            <path id="shapePath1" d="M6.34128,7.32746 L151.371,7.32746 L151.371,142.673 L6.34128,142.673 L6.34128,7.32746 Z" style="stroke:none;fill-rule:evenodd;fill:#e22b4a;fill-opacity:1;"/>
        </g>
        <g id="Shape2">
            <desc shapeID="2" type="0" basicInfo-basicType="1" basicInfo-roundedRectRadius="12" basicInfo-polygonSides="6" basicInfo-starPoints="5" bounding="rect(-87.5002,-54.4999,175,109)" text="" font-familyName="Helvetica" font-pixelSize="20" font-bold="0" font-underline="0" font-alignment="1" strokeStyle="0" markerStart="0" markerEnd="0" shadowEnabled="0" shadowOffsetX="0" shadowOffsetY="2" shadowBlur="4" shadowOpacity="160" blurEnabled="0" blurRadius="4" transform="matrix(0.426885,0,0,0.461142,55.4529,43.9882)" pers-center="0,0" pers-size="0,0" pers-start="0,0" pers-end="0,0" locked="0" mesh="" flag=""/>
            <path id="shapePath2" d="M18.1004,18.856 L92.8054,18.856 L92.8054,69.1204 L18.1004,69.1204 L18.1004,18.856 Z" style="stroke:none;fill-rule:evenodd;fill:#f7cb34;fill-opacity:1;"/>
        </g>
        <g id="Shape3">
            <desc shapeID="3" type="0" basicInfo-basicType="1" basicInfo-roundedRectRadius="12" basicInfo-polygonSides="6" basicInfo-starPoints="5" bounding="rect(-87.5009,-54.5,175.001,109)" text="" font-familyName="Helvetica" font-pixelSize="20" font-bold="0" font-underline="0" font-alignment="1" strokeStyle="0" markerStart="0" markerEnd="0" shadowEnabled="0" shadowOffsetX="0" shadowOffsetY="2" shadowBlur="4" shadowOpacity="160" blurEnabled="0" blurRadius="4" transform="matrix(0.694346,0,0,0.461142,78.8563,105.781)" pers-center="0,0" pers-size="0,0" pers-start="0,0" pers-end="0,0" locked="0" mesh="" flag=""/>
            <path id="shapePath3" d="M18.1004,80.649 L139.612,80.649 L139.612,130.914 L18.1004,130.914 L18.1004,80.649 Z" style="stroke:none;fill-rule:evenodd;fill:#f7cb34;fill-opacity:1;"/>
        </g>
        <g id="Shape4">
            <desc shapeID="4" type="2" basicInfo-basicType="0" basicInfo-roundedRectRadius="12" basicInfo-polygonSides="6" basicInfo-starPoints="5" bounding="rect(-160.871,-22.6752,321.742,45.3504)" text="Flex Grid&#10;" font-familyName="Open Sans" font-pixelSize="65" font-bold="0" font-underline="0" font-alignment="0" strokeStyle="0" markerStart="0" markerEnd="0" shadowEnabled="0" shadowOffsetX="0" shadowOffsetY="2" shadowBlur="4" shadowOpacity="160" blurEnabled="0" blurRadius="4" transform="matrix(1,0,0,1,324.943,45.8898)" pers-center="0,0" pers-size="0,0" pers-start="0,0" pers-end="0,0" locked="0" mesh="" flag=""/>
            <path id="shapePath4" d="M179.604,70.6867 L169.924,70.6867 L169.924,24.2853 L196.521,24.2853 L196.521,32.3468 L179.604,32.3468 L179.604,44.3122 L195.346,44.3122 L195.346,52.342 L179.604,52.342 L179.604,70.6867 M214.514,70.6867 L204.834,70.6867 L204.834,21.3019 L214.514,21.3019 L214.514,70.6867 M239.357,41.424 C237.305,41.424 235.697,42.0746 234.533,43.3759 C233.369,44.6772 232.703,46.5233 232.533,48.9142 L246.117,48.9142 C246.075,46.5233 245.451,44.6772 244.245,43.3759 C243.039,42.0746 241.409,41.424 239.357,41.424 M240.722,71.3215 C235.009,71.3215 230.544,69.7451 227.328,66.5925 C224.112,63.4398 222.504,58.9753 222.504,53.1989 C222.504,47.2533 223.99,42.6565 226.963,39.4086 C229.936,36.1607 234.046,34.5368 239.294,34.5368 C244.308,34.5368 248.212,35.965 251.005,38.8215 C253.798,41.6779 255.194,45.624 255.194,50.6598 L255.194,55.3571 L232.311,55.3571 C232.417,58.1077 233.232,60.2554 234.755,61.8 C236.278,63.3446 238.415,64.1169 241.166,64.1169 C243.303,64.1169 245.324,63.8947 247.228,63.4504 C249.132,63.006 251.121,62.2972 253.195,61.3239 L253.195,68.8141 C251.502,69.6605 249.693,70.29 247.768,70.7026 C245.842,71.1152 243.494,71.3215 240.722,71.3215 M269.024,52.5641 L257.598,35.2033 L268.58,35.2033 L275.467,46.5021 L282.418,35.2033 L293.399,35.2033 L281.846,52.5641 L293.939,70.6867 L282.925,70.6867 L275.467,58.5309 L267.977,70.6867 L256.995,70.6867 L269.024,52.5641 M334.586,44.6296 L352.994,44.6296 L352.994,68.6872 C350.01,69.6605 347.201,70.3429 344.567,70.7343 C341.933,71.1257 339.24,71.3215 336.49,71.3215 C329.486,71.3215 324.138,69.2638 320.446,65.1484 C316.754,61.033 314.908,55.1244 314.908,47.4225 C314.908,39.9323 317.05,34.0924 321.335,29.903 C325.619,25.7135 331.56,23.6188 339.156,23.6188 C343.917,23.6188 348.508,24.571 352.93,26.4753 L349.661,34.3464 C346.276,32.6536 342.753,31.8073 339.092,31.8073 C334.839,31.8073 331.433,33.2355 328.873,36.092 C326.312,38.9484 325.032,42.7887 325.032,47.613 C325.032,52.6488 326.064,56.4944 328.127,59.1498 C330.19,61.8053 333.189,63.133 337.125,63.133 C339.177,63.133 341.261,62.9214 343.377,62.4982 L343.377,52.818 L334.586,52.818 L334.586,44.6296 M383.076,34.5368 C384.388,34.5368 385.478,34.632 386.345,34.8224 L385.615,43.8996 C384.832,43.688 383.88,43.5822 382.759,43.5822 C379.67,43.5822 377.263,44.3757 375.538,45.9626 C373.814,47.5495 372.952,49.7712 372.952,52.6276 L372.952,70.6867 L363.272,70.6867 L363.272,35.2033 L370.603,35.2033 L372.031,41.1701 L372.507,41.1701 C373.608,39.1812 375.094,37.5784 376.967,36.3617 C378.839,35.1451 380.876,34.5368 383.076,34.5368 M392.375,26.0309 C392.375,22.8783 394.131,21.3019 397.643,21.3019 C401.155,21.3019 402.912,22.8783 402.912,26.0309 C402.912,27.5332 402.473,28.7022 401.595,29.538 C400.716,30.3738 399.399,30.7917 397.643,30.7917 C394.131,30.7917 392.375,29.2048 392.375,26.0309 M402.467,70.6867 L392.787,70.6867 L392.787,35.2033 L402.467,35.2033 L402.467,70.6867 M423.851,71.3215 C419.682,71.3215 416.408,69.7028 414.028,66.4655 C411.647,63.2282 410.457,58.7425 410.457,53.0085 C410.457,47.1898 411.668,42.6565 414.091,39.4086 C416.514,36.1607 419.852,34.5368 424.105,34.5368 C428.569,34.5368 431.976,36.2718 434.324,39.7419 L434.642,39.7419 C434.155,37.097 433.912,34.7378 433.912,32.6642 L433.912,21.3019 L443.624,21.3019 L443.624,70.6867 L436.197,70.6867 L434.324,66.0846 L433.912,66.0846 C431.711,69.5759 428.357,71.3215 423.851,71.3215 M427.247,63.6091 C429.722,63.6091 431.537,62.8896 432.69,61.4508 C433.843,60.012 434.472,57.5682 434.578,54.1193 L434.578,53.0719 C434.578,49.2633 433.991,46.5339 432.817,44.8835 C431.642,43.2331 429.733,42.4079 427.088,42.4079 C424.93,42.4079 423.253,43.323 422.057,45.1532 C420.862,46.9835 420.264,49.6442 420.264,53.1354 C420.264,56.6266 420.867,59.245 422.073,60.9906 C423.279,62.7362 425.004,63.6091 427.247,63.6091 Z" style="stroke:none;fill-rule:nonzero;fill:#ffffff;fill-opacity:1;"/>
        </g>
        <g id="Shape5">
            <desc shapeID="5" type="2" basicInfo-basicType="0" basicInfo-roundedRectRadius="12" basicInfo-polygonSides="6" basicInfo-starPoints="5" bounding="rect(-138.423,-27.7565,276.845,55.5127)" text="Framework" font-familyName="Open Sans" font-pixelSize="65" font-bold="0" font-underline="0" font-alignment="1" strokeStyle="0" markerStart="0" markerEnd="0" shadowEnabled="0" shadowOffsetX="0" shadowOffsetY="2" shadowBlur="4" shadowOpacity="160" blurEnabled="0" blurRadius="4" transform="matrix(1,0,0,1,348.789,103.345)" pers-center="0,0" pers-size="0,0" pers-start="0,0" pers-end="0,0" locked="0" mesh="" flag=""/>
            <path id="shapePath5" d="M179.465,128.063 L169.785,128.063 L169.785,81.6619 L196.381,81.6619 L196.381,89.7235 L179.465,89.7235 L179.465,101.689 L195.207,101.689 L195.207,109.719 L179.465,109.719 L179.465,128.063 M224.5,91.9134 C225.811,91.9134 226.901,92.0086 227.769,92.1991 L227.039,101.276 C226.256,101.065 225.304,100.959 224.182,100.959 C221.093,100.959 218.686,101.752 216.962,103.339 C215.237,104.926 214.375,107.148 214.375,110.004 L214.375,128.063 L204.695,128.063 L204.695,92.5799 L212.026,92.5799 L213.455,98.5467 L213.931,98.5467 C215.031,96.5578 216.517,94.955 218.39,93.7384 C220.262,92.5217 222.299,91.9134 224.5,91.9134 M255.432,128.063 L253.56,123.239 L253.306,123.239 C251.676,125.292 250,126.714 248.275,127.508 C246.551,128.301 244.303,128.698 241.531,128.698 C238.124,128.698 235.442,127.725 233.485,125.778 C231.528,123.832 230.549,121.06 230.549,117.463 C230.549,113.696 231.866,110.919 234.501,109.131 C237.135,107.344 241.108,106.354 246.418,106.164 L252.576,105.973 L252.576,104.418 C252.576,100.821 250.735,99.0228 247.053,99.0228 C244.218,99.0228 240.885,99.8797 237.056,101.594 L233.85,95.0555 C237.934,92.9185 242.462,91.8499 247.434,91.8499 C252.195,91.8499 255.845,92.8867 258.384,94.9603 C260.923,97.0339 262.192,100.187 262.192,104.418 L262.192,128.063 L255.432,128.063 M252.576,111.623 L248.831,111.75 C246.016,111.834 243.922,112.342 242.546,113.273 C241.171,114.204 240.483,115.622 240.483,117.526 C240.483,120.256 242.049,121.62 245.181,121.62 C247.423,121.62 249.217,120.975 250.56,119.684 C251.904,118.394 252.576,116.68 252.576,114.543 L252.576,111.623 M303.918,128.063 L294.238,128.063 L294.238,107.338 C294.238,104.778 293.809,102.858 292.952,101.578 C292.095,100.298 290.747,99.6576 288.906,99.6576 C286.43,99.6576 284.632,100.567 283.51,102.387 C282.389,104.207 281.828,107.201 281.828,111.369 L281.828,128.063 L272.148,128.063 L272.148,92.5799 L279.543,92.5799 L280.844,97.1185 L281.384,97.1185 C282.336,95.4893 283.711,94.2144 285.51,93.294 C287.308,92.3736 289.371,91.9134 291.699,91.9134 C297.01,91.9134 300.607,93.6484 302.49,97.1185 L303.347,97.1185 C304.299,95.4681 305.701,94.188 307.552,93.2782 C309.403,92.3683 311.493,91.9134 313.82,91.9134 C317.84,91.9134 320.882,92.9449 322.945,95.0079 C325.008,97.0709 326.04,100.377 326.04,104.926 L326.04,128.063 L316.328,128.063 L316.328,107.338 C316.328,104.778 315.899,102.858 315.042,101.578 C314.185,100.298 312.836,99.6576 310.996,99.6576 C308.626,99.6576 306.854,100.504 305.679,102.197 C304.505,103.889 303.918,106.576 303.918,110.258 L303.918,128.063 M350.655,98.8006 C348.603,98.8006 346.995,99.4513 345.831,100.753 C344.667,102.054 344.001,103.9 343.832,106.291 L357.416,106.291 C357.373,103.9 356.749,102.054 355.543,100.753 C354.337,99.4513 352.708,98.8006 350.655,98.8006 M352.02,128.698 C346.307,128.698 341.843,127.122 338.626,123.969 C335.41,120.816 333.802,116.352 333.802,110.576 C333.802,104.63 335.289,100.033 338.261,96.7852 C341.234,93.5374 345.344,91.9134 350.592,91.9134 C355.606,91.9134 359.51,93.3416 362.303,96.1981 C365.096,99.0545 366.493,103.001 366.493,108.036 L366.493,112.734 L343.609,112.734 C343.715,115.484 344.53,117.632 346.053,119.177 C347.577,120.721 349.714,121.493 352.464,121.493 C354.601,121.493 356.622,121.271 358.526,120.827 C360.431,120.383 362.42,119.674 364.493,118.701 L364.493,126.191 C362.8,127.037 360.991,127.667 359.066,128.079 C357.14,128.492 354.792,128.698 352.02,128.698 M402.222,128.063 L399.492,115.654 L395.811,99.9749 L395.588,99.9749 L389.114,128.063 L378.704,128.063 L368.611,92.5799 L378.259,92.5799 L382.354,108.29 C383.009,111.104 383.676,114.987 384.353,119.938 L384.543,119.938 C384.628,118.33 384.998,115.781 385.654,112.289 L386.162,109.592 L390.542,92.5799 L401.206,92.5799 L405.364,109.592 C405.448,110.057 405.581,110.745 405.76,111.655 C405.94,112.564 406.115,113.532 406.284,114.559 C406.453,115.585 406.607,116.59 406.744,117.574 C406.882,118.558 406.961,119.346 406.982,119.938 L407.173,119.938 C407.363,118.415 407.702,116.325 408.188,113.67 C408.675,111.015 409.024,109.221 409.236,108.29 L413.489,92.5799 L422.979,92.5799 L412.759,128.063 L402.222,128.063 M436.392,110.258 C436.392,113.771 436.968,116.426 438.121,118.224 C439.275,120.023 441.152,120.922 443.755,120.922 C446.336,120.922 448.193,120.028 449.325,118.24 C450.457,116.452 451.023,113.792 451.023,110.258 C451.023,106.746 450.452,104.111 449.309,102.355 C448.167,100.599 446.294,99.721 443.691,99.721 C441.11,99.721 439.248,100.594 438.105,102.339 C436.963,104.085 436.392,106.725 436.392,110.258 M460.925,110.258 C460.925,116.035 459.402,120.552 456.355,123.81 C453.308,127.069 449.066,128.698 443.628,128.698 C440.221,128.698 437.217,127.952 434.614,126.461 C432.012,124.969 430.012,122.826 428.616,120.034 C427.219,117.241 426.521,113.982 426.521,110.258 C426.521,104.461 428.034,99.9538 431.06,96.7376 C434.085,93.5215 438.338,91.9134 443.818,91.9134 C447.225,91.9134 450.229,92.654 452.832,94.1351 C455.435,95.6162 457.434,97.7427 458.831,100.514 C460.227,103.286 460.925,106.534 460.925,110.258 M488.718,91.9134 C490.03,91.9134 491.12,92.0086 491.987,92.1991 L491.257,101.276 C490.474,101.065 489.522,100.959 488.401,100.959 C485.312,100.959 482.905,101.752 481.18,103.339 C479.456,104.926 478.594,107.148 478.594,110.004 L478.594,128.063 L468.914,128.063 L468.914,92.5799 L476.245,92.5799 L477.673,98.5467 L478.149,98.5467 C479.25,96.5578 480.736,94.955 482.609,93.7384 C484.481,92.5217 486.518,91.9134 488.718,91.9134 M507.729,108.766 L511.95,103.371 L521.884,92.5799 L532.802,92.5799 L518.71,107.973 L533.659,128.063 L522.487,128.063 L512.267,113.686 L508.109,117.018 L508.109,128.063 L498.429,128.063 L498.429,78.6786 L508.109,78.6786 L508.109,100.705 L507.602,108.766 L507.729,108.766 Z" style="stroke:none;fill-rule:nonzero;fill:#ffffff;fill-opacity:1;"/>
        </g>
    </g>
</svg>

<svg xmlns="http://www.w3.org/2000/svg" width="540" height="150"><path d="M6.34 7.327h145.03v135.346H6.34V7.327z" fill-rule="evenodd" fill="#e22b4a"/><path d="M18.1 18.856h74.705V69.12H18.1V18.856z" fill-rule="evenodd" fill="#f7cb34"/><path d="M18.1 80.65h121.512v50.264H18.1V80.65z" fill-rule="evenodd" fill="#f7cb34"/><g><path class="bar" d="M179.604 70.687h-9.68V24.285h26.596v8.062h-16.916v11.965h15.742v8.03h-15.742v18.345m34.91 0h-9.68V21.302h9.68v49.385m24.843-29.263c-2.053 0-3.66.65-4.825 1.952-1.163 1.3-1.83 3.147-2 5.538h13.585c-.043-2.39-.667-4.237-1.873-5.538-1.206-1.3-2.835-1.952-4.887-1.952m1.364 29.897c-5.712 0-10.176-1.575-13.392-4.728-3.216-3.152-4.824-7.617-4.824-13.393 0-5.947 1.486-10.544 4.46-13.79 2.972-3.25 7.082-4.873 12.33-4.873 5.014 0 8.918 1.428 11.71 4.284 2.793 2.858 4.19 6.804 4.19 11.84v4.697H232.31c.106 2.75.92 4.898 2.445 6.443 1.523 1.545 3.66 2.317 6.41 2.317 2.138 0 4.158-.222 6.063-.667 1.904-.444 3.893-1.153 5.966-2.126v7.49c-1.692.847-3.5 1.476-5.427 1.89-1.925.41-4.274.617-7.046.617m28.304-18.756l-11.426-17.36h10.98l6.888 11.298 6.95-11.3H293.4l-11.554 17.362 12.092 18.123h-11.013l-7.46-12.156-7.49 12.157h-10.98l12.03-18.123m65.56-7.934h18.408v24.057c-2.983.974-5.792 1.656-8.426 2.047-2.635.392-5.327.587-8.078.587-7.004 0-12.352-2.056-16.044-6.172-3.693-4.115-5.54-10.024-5.54-17.725 0-7.49 2.144-13.33 6.428-17.52 4.285-4.19 10.225-6.284 17.82-6.284 4.762 0 9.354.95 13.776 2.855l-3.27 7.87c-3.385-1.69-6.908-2.538-10.568-2.538-4.253 0-7.66 1.43-10.22 4.285-2.56 2.856-3.84 6.697-3.84 11.52 0 5.037 1.03 8.882 3.094 11.538 2.063 2.655 5.063 3.983 8.998 3.983 2.053 0 4.137-.212 6.253-.635v-9.68h-8.792V44.63m48.49-10.093c1.313 0 2.402.095 3.27.285l-.73 9.078c-.783-.212-1.735-.318-2.857-.318-3.09 0-5.496.794-7.22 2.38-1.724 1.587-2.587 3.81-2.587 6.666v18.06h-9.68V35.202h7.333l1.428 5.967h.477c1.1-1.99 2.587-3.592 4.46-4.808 1.872-1.217 3.908-1.825 6.11-1.825m9.297-8.506c0-3.152 1.756-4.728 5.27-4.728 3.51 0 5.267 1.576 5.267 4.73 0 1.5-.438 2.67-1.316 3.506-.878.836-2.195 1.254-3.95 1.254-3.514 0-5.27-1.587-5.27-4.76m10.093 44.655h-9.68V35.203h9.68v35.484m21.383.634c-4.168 0-7.442-1.617-9.823-4.854-2.38-3.238-3.57-7.723-3.57-13.457 0-5.82 1.21-10.353 3.634-13.6 2.423-3.25 5.76-4.873 10.014-4.873 4.465 0 7.87 1.735 10.22 5.205h.317c-.485-2.645-.73-5.004-.73-7.078V21.302h9.713v49.385h-7.427l-1.872-4.602h-.413c-2.2 3.49-5.553 5.236-10.06 5.236m3.396-7.71c2.476 0 4.29-.72 5.443-2.16 1.152-1.438 1.782-3.882 1.888-7.33V53.07c0-3.81-.587-6.538-1.762-8.19-1.174-1.65-3.084-2.474-5.728-2.474-2.16 0-3.836.915-5.03 2.745-1.196 1.83-1.794 4.49-1.794 7.982s.603 6.11 1.81 7.856c1.205 1.746 2.93 2.62 5.172 2.62z"/></g><g><path d="M179.465 128.064h-9.68V81.662h26.597v8.062h-16.917v11.965h15.742v8.03h-15.742v18.344m45.035-36.15c1.312 0 2.4.095 3.27.285l-.73 9.077c-.784-.212-1.736-.318-2.857-.318-3.09 0-5.496.793-7.22 2.38-1.725 1.587-2.588 3.808-2.588 6.665v18.06h-9.68V92.58h7.332l1.428 5.967h.476c1.1-1.99 2.588-3.592 4.46-4.808 1.873-1.218 3.91-1.826 6.11-1.826m30.933 36.15l-1.873-4.824h-.254c-1.63 2.052-3.306 3.475-5.03 4.268-1.725.794-3.973 1.19-6.745 1.19-3.405 0-6.087-.973-8.044-2.92-1.958-1.946-2.936-4.718-2.936-8.315 0-3.766 1.317-6.543 3.95-8.33 2.635-1.79 6.608-2.778 11.92-2.97l6.156-.19v-1.554c0-3.598-1.84-5.397-5.522-5.397-2.836 0-6.168.857-9.998 2.57l-3.205-6.537c4.084-2.137 8.612-3.206 13.585-3.206 4.76 0 8.41 1.037 10.95 3.11 2.538 2.074 3.808 5.227 3.808 9.46v23.644h-6.76m-2.857-16.44l-3.745.126c-2.813.085-4.908.593-6.283 1.524-1.376.93-2.063 2.348-2.063 4.253 0 2.73 1.566 4.094 4.697 4.094 2.244 0 4.037-.644 5.38-1.935 1.344-1.29 2.016-3.005 2.016-5.142v-2.92m51.342 16.44h-9.68V107.34c0-2.562-.428-4.482-1.285-5.762-.857-1.28-2.206-1.92-4.047-1.92-2.475 0-4.274.91-5.395 2.73-1.12 1.82-1.68 4.813-1.68 8.98v16.696h-9.682V92.58h7.395l1.302 4.54h.54c.95-1.63 2.327-2.905 4.125-3.826 1.8-.92 3.862-1.38 6.19-1.38 5.31 0 8.907 1.735 10.79 5.205h.857c.952-1.65 2.354-2.932 4.205-3.84 1.852-.91 3.94-1.366 6.27-1.366 4.02 0 7.06 1.03 9.123 3.094 2.063 2.063 3.095 5.37 3.095 9.92v23.136h-9.712V107.34c0-2.562-.428-4.482-1.285-5.762-.857-1.28-2.206-1.92-4.047-1.92-2.37 0-4.142.846-5.316 2.54-1.174 1.692-1.762 4.38-1.762 8.06v17.806M350.656 98.8c-2.053 0-3.66.652-4.825 1.953-1.162 1.3-1.83 3.147-1.998 5.538h13.584c-.042-2.39-.667-4.236-1.873-5.537-1.206-1.3-2.835-1.952-4.887-1.952m1.364 29.9c-5.712 0-10.177-1.578-13.393-4.73-3.216-3.153-4.824-7.618-4.824-13.394 0-5.946 1.486-10.542 4.46-13.79 2.972-3.248 7.082-4.872 12.33-4.872 5.014 0 8.918 1.428 11.71 4.284 2.794 2.857 4.19 6.803 4.19 11.84v4.696H343.61c.106 2.75.92 4.898 2.444 6.443 1.523 1.545 3.66 2.317 6.41 2.317 2.138 0 4.158-.222 6.063-.667 1.904-.444 3.893-1.153 5.967-2.126v7.49c-1.693.848-3.502 1.477-5.428 1.89-1.925.412-4.274.62-7.046.62m50.202-.636l-2.73-12.41-3.68-15.68h-.223l-6.476 28.09h-10.41L368.61 92.58h9.65l4.094 15.71c.656 2.815 1.322 6.698 2 11.65h.19c.085-1.61.455-4.16 1.11-7.65l.51-2.698 4.378-17.012h10.664l4.158 17.012c.085.466.217 1.153.397 2.063.18.91.355 1.878.525 2.904.17 1.025.322 2.03.46 3.014.137.984.217 1.772.238 2.365h.19c.19-1.525.53-3.614 1.016-6.27.486-2.655.835-4.448 1.046-5.38l4.253-15.71h9.49l-10.22 35.484H402.22m34.17-17.805c0 3.51.577 6.166 1.73 7.965 1.153 1.798 3.03 2.698 5.633 2.698 2.582 0 4.438-.894 5.57-2.682 1.132-1.787 1.698-4.448 1.698-7.98 0-3.514-.57-6.148-1.713-7.904-1.143-1.756-3.016-2.634-5.618-2.634-2.582 0-4.444.872-5.586 2.618-1.143 1.745-1.714 4.385-1.714 7.92m24.534 0c0 5.775-1.524 10.292-4.57 13.55-3.047 3.26-7.29 4.89-12.728 4.89-3.406 0-6.41-.747-9.013-2.24-2.603-1.49-4.602-3.633-6-6.426-1.395-2.793-2.094-6.05-2.094-9.775 0-5.8 1.514-10.306 4.54-13.522 3.026-3.216 7.28-4.824 12.76-4.824 3.405 0 6.41.74 9.012 2.22 2.603 1.483 4.603 3.61 6 6.38 1.395 2.773 2.094 6.02 2.094 9.745m27.793-18.346c1.31 0 2.4.095 3.268.285l-.73 9.077c-.783-.212-1.735-.318-2.857-.318-3.088 0-5.495.793-7.22 2.38-1.724 1.587-2.586 3.808-2.586 6.665v18.06h-9.68V92.58h7.332l1.428 5.967h.476c1.1-1.99 2.587-3.592 4.46-4.808 1.872-1.218 3.908-1.826 6.11-1.826m19.01 16.853l4.22-5.396 9.934-10.79h10.918l-14.092 15.393 14.95 20.09h-11.173l-10.22-14.377-4.157 3.333v11.044h-9.68V78.68h9.68v22.025l-.508 8.062h.127z"/></g></svg>
